app/clientComponent/section6_contact/images/reaction.svg

<svg width="464" height="34" viewBox="0 0 464 34" fill="none" xmlns="http://www.w3.org/2000/svg">
<path d="M33.95 32.4C34.05 32.4 34.1 32.5 34.1 32.7C34.1 32.9 34.05 33 33.95 33H25.9C25.1333 33 23.7 31.6667 21.6 29C19.5333 26.3333 17.0167 22.6 14.05 17.8C13.3167 17.8667 12.75 17.9 12.35 17.9C11.6167 17.9 10.75 17.8667 9.75 17.8V28.95C9.75 29.9833 9.83333 30.7333 10 31.2C10.2 31.6667 10.55 31.9833 11.05 32.15C11.5833 32.3167 12.4167 32.4 13.55 32.4C13.6167 32.4 13.65 32.5 13.65 32.7C13.65 32.9 13.6167 33 13.55 33C12.45 33 11.6 32.9833 11 32.95L7.3 32.9L3.7 32.95C3.06667 32.9833 2.2 33 1.1 33C1 33 0.95 32.9 0.95 32.7C0.95 32.5 1 32.4 1.1 32.4C2.23333 32.4 3.05 32.3167 3.55 32.15C4.08333 31.9833 4.45 31.6667 4.65 31.2C4.85 30.7 4.95 29.95 4.95 28.95V5.8C4.95 4.8 4.85 4.06667 4.65 3.6C4.48333 3.13333 4.13333 2.81666 3.6 2.65C3.06667 2.45 2.25 2.35 1.15 2.35C1.08333 2.35 1.05 2.25 1.05 2.05C1.05 1.85 1.08333 1.75 1.15 1.75L3.75 1.8C5.21667 1.86667 6.4 1.9 7.3 1.9C8.4 1.9 9.6 1.85 10.9 1.75C11.3333 1.71667 11.85 1.68333 12.45 1.65C13.0833 1.61667 13.7833 1.6 14.55 1.6C17.45 1.6 19.6833 2.16667 21.25 3.3C22.85 4.43333 23.65 6.01667 23.65 8.05C23.65 9.88333 23.1333 11.5333 22.1 13C21.1 14.4667 19.75 15.6333 18.05 16.5C20.7833 20.5333 23.0667 23.6833 24.9 25.95C26.7333 28.2167 28.35 29.8667 29.75 30.9C31.1833 31.9 32.5833 32.4 33.95 32.4ZM9.75 16.45C10.55 16.5833 11.5167 16.65 12.65 16.65C14.8167 16.65 16.3667 16.1167 17.3 15.05C18.2333 13.95 18.7 12.2 18.7 9.8C18.7 7.1 18.2333 5.21667 17.3 4.15C16.4 3.08333 15.0833 2.55 13.35 2.55C12.05 2.55 11.1167 2.8 10.55 3.3C10.0167 3.76666 9.75 4.63333 9.75 5.9V16.45ZM87.9715 25.2C87.9715 25.1333 88.0382 25.1 88.1715 25.1C88.2715 25.1 88.3548 25.1333 88.4215 25.2C88.5215 25.2333 88.5715 25.2667 88.5715 25.3C88.2382 27.8333 88.0715 30.15 88.0715 32.25C88.0715 32.5167 88.0215 32.7167 87.9215 32.85C87.8215 32.95 87.6215 33 87.3215 33H65.6215C65.5215 33 65.4715 32.9 65.4715 32.7C65.4715 32.5 65.5215 32.4 65.6215 32.4C66.7548 32.4 67.5715 32.3167 68.0715 32.15C68.6048 31.9833 68.9548 31.6667 69.1215 31.2C69.3215 30.7 69.4215 29.95 69.4215 28.95V5.8C69.4215 4.8 69.3215 4.06667 69.1215 3.6C68.9548 3.13333 68.6048 2.81666 68.0715 2.65C67.5382 2.45 66.7215 2.35 65.6215 2.35C65.5215 2.35 65.4715 2.25 65.4715 2.05C65.4715 1.85 65.5215 1.75 65.6215 1.75H86.4215C86.7548 1.75 86.9215 1.9 86.9215 2.2L87.0215 8.7C87.0215 8.76667 86.9215 8.81667 86.7215 8.85C86.5548 8.88333 86.4548 8.85 86.4215 8.75C85.6215 4.95 83.3048 3.05 79.4715 3.05H77.4715C76.2715 3.05 75.4215 3.26667 74.9215 3.7C74.4215 4.13333 74.1715 4.86667 74.1715 5.9V16.1H78.9715C82.6382 16.1 84.4715 14.8667 84.4715 12.4C84.4715 12.3 84.5548 12.25 84.7215 12.25C84.9215 12.25 85.0215 12.3 85.0215 12.4L84.9715 16.75L85.0215 19.1C85.0882 20.1667 85.1215 21.0333 85.1215 21.7C85.1215 21.7667 85.0215 21.8 84.8215 21.8C84.6215 21.8 84.5215 21.7667 84.5215 21.7C84.5215 18.8333 82.6548 17.4 78.9215 17.4H74.1715V28.75C74.1715 29.85 74.3715 30.6167 74.7715 31.05C75.2048 31.4833 75.9548 31.7 77.0215 31.7H79.4715C83.9382 31.7 86.7715 29.5333 87.9715 25.2ZM156.415 32.4C156.582 32.4 156.665 32.5 156.665 32.7C156.665 32.9 156.582 33 156.415 33C155.782 33 154.765 32.9667 153.365 32.9C151.965 32.8333 150.949 32.8 150.315 32.8C149.482 32.8 148.499 32.8333 147.365 32.9C146.232 32.9667 145.349 33 144.715 33C144.582 33 144.515 32.9 144.515 32.7C144.515 32.5 144.582 32.4 144.715 32.4C145.682 32.4 146.382 32.3 146.815 32.1C147.282 31.8667 147.515 31.5 147.515 31C147.515 30.5 147.232 29.65 146.665 28.45L142.865 20.75H130.765L128.365 26.15C127.932 27.15 127.715 28.05 127.715 28.85C127.715 30.0167 128.132 30.9 128.965 31.5C129.799 32.1 130.965 32.4 132.465 32.4C132.632 32.4 132.715 32.5 132.715 32.7C132.715 32.9 132.632 33 132.465 33C131.865 33 130.999 32.9667 129.865 32.9C128.599 32.8333 127.499 32.8 126.565 32.8C125.665 32.8 124.615 32.8333 123.415 32.9C122.349 32.9667 121.465 33 120.765 33C120.599 33 120.515 32.9 120.515 32.7C120.515 32.5 120.599 32.4 120.765 32.4C121.699 32.4 122.482 32.2167 123.115 31.85C123.749 31.4833 124.365 30.8333 124.965 29.9C125.565 28.9333 126.282 27.5167 127.115 25.65L137.865 1.45C137.932 1.35 138.082 1.3 138.315 1.3C138.549 1.3 138.682 1.35 138.715 1.45L150.965 26.15C152.132 28.55 153.099 30.2 153.865 31.1C154.665 31.9667 155.515 32.4 156.415 32.4ZM131.315 19.5H142.265L136.515 7.85L131.315 19.5ZM206.926 1.2C210.626 1.2 213.61 1.71667 215.876 2.75C216.143 2.88333 216.31 3.01667 216.376 3.15C216.443 3.25 216.51 3.5 216.576 3.9L217.176 10.5C217.176 10.6 217.093 10.6667 216.926 10.7C216.76 10.7333 216.643 10.6833 216.576 10.55C215.71 7.81667 214.41 5.73333 212.676 4.3C210.976 2.86667 208.86 2.15 206.326 2.15C203.893 2.15 201.71 2.76666 199.776 4C197.876 5.2 196.393 6.95 195.326 9.25C194.26 11.5167 193.726 14.1667 193.726 17.2C193.726 20.2 194.293 22.8833 195.426 25.25C196.56 27.5833 198.11 29.4 200.076 30.7C202.043 32 204.26 32.65 206.726 32.65C209.16 32.65 211.176 32.0167 212.776 30.75C214.41 29.45 215.843 27.4 217.076 24.6C217.11 24.5 217.21 24.4667 217.376 24.5C217.543 24.5333 217.626 24.5833 217.626 24.65L216.976 30.65C216.943 31.05 216.876 31.3 216.776 31.4C216.71 31.5 216.543 31.6167 216.276 31.75C213.276 32.9833 210.093 33.6 206.726 33.6C203.16 33.6 199.976 32.9333 197.176 31.6C194.376 30.2333 192.193 28.3333 190.626 25.9C189.06 23.4333 188.276 20.6167 188.276 17.45C188.276 14.3167 189.093 11.5167 190.726 9.05C192.36 6.58333 194.593 4.66666 197.426 3.3C200.26 1.9 203.426 1.2 206.926 1.2ZM260.507 2.8C258.474 2.8 256.79 3.43333 255.457 4.7C254.157 5.93333 253.157 7.81667 252.457 10.35C252.457 10.4167 252.357 10.45 252.157 10.45C251.99 10.45 251.907 10.4 251.907 10.3C252.04 9 252.19 7.33333 252.357 5.3C252.524 3.23333 252.607 1.68333 252.607 0.649999C252.607 0.483333 252.69 0.399999 252.857 0.399999C253.057 0.399999 253.157 0.483333 253.157 0.649999C253.157 1.38333 254.09 1.75 255.957 1.75C258.824 1.85 262.174 1.9 266.007 1.9C267.974 1.9 270.057 1.86667 272.257 1.8L275.657 1.75C276.924 1.75 277.84 1.66667 278.407 1.5C279.007 1.33333 279.39 0.999998 279.557 0.499998C279.59 0.366665 279.69 0.299998 279.857 0.299998C280.024 0.299998 280.107 0.366665 280.107 0.499998C280.007 1.53333 279.907 3.1 279.807 5.2C279.707 7.3 279.657 9 279.657 10.3C279.657 10.4 279.557 10.45 279.357 10.45C279.19 10.45 279.09 10.4 279.057 10.3C278.724 7.73333 277.94 5.85 276.707 4.65C275.474 3.41667 273.807 2.8 271.707 2.8C270.774 2.8 270.074 2.88333 269.607 3.05C269.174 3.21666 268.874 3.51666 268.707 3.95C268.574 4.35 268.507 5 268.507 5.9V28.95C268.507 29.9833 268.607 30.7333 268.807 31.2C269.007 31.6667 269.407 31.9833 270.007 32.15C270.607 32.3167 271.557 32.4 272.857 32.4C272.957 32.4 273.007 32.5 273.007 32.7C273.007 32.9 272.957 33 272.857 33C271.69 33 270.774 32.9833 270.107 32.95L266.007 32.9L262.107 32.95C261.407 32.9833 260.44 33 259.207 33C259.14 33 259.107 32.9 259.107 32.7C259.107 32.5 259.14 32.4 259.207 32.4C260.507 32.4 261.457 32.3167 262.057 32.15C262.69 31.9833 263.107 31.6667 263.307 31.2C263.54 30.7 263.657 29.95 263.657 28.95V5.8C263.657 4.93333 263.574 4.3 263.407 3.9C263.24 3.5 262.94 3.21666 262.507 3.05C262.074 2.88333 261.407 2.8 260.507 2.8ZM322.839 28.95C322.839 29.9833 322.923 30.7333 323.089 31.2C323.256 31.6667 323.589 31.9833 324.089 32.15C324.623 32.3167 325.456 32.4 326.589 32.4C326.689 32.4 326.739 32.5 326.739 32.7C326.739 32.9 326.689 33 326.589 33C325.523 33 324.673 32.9833 324.039 32.95L320.339 32.9L316.739 32.95C316.106 32.9833 315.239 33 314.139 33C314.039 33 313.989 32.9 313.989 32.7C313.989 32.5 314.039 32.4 314.139 32.4C315.273 32.4 316.089 32.3167 316.589 32.15C317.123 31.9833 317.489 31.6667 317.689 31.2C317.889 30.7 317.989 29.95 317.989 28.95V5.8C317.989 4.8 317.889 4.06667 317.689 3.6C317.489 3.13333 317.123 2.81666 316.589 2.65C316.089 2.45 315.273 2.35 314.139 2.35C314.039 2.35 313.989 2.25 313.989 2.05C313.989 1.85 314.039 1.75 314.139 1.75L316.739 1.8C318.206 1.86667 319.406 1.9 320.339 1.9C321.373 1.9 322.623 1.86667 324.089 1.8L326.589 1.75C326.689 1.75 326.739 1.85 326.739 2.05C326.739 2.25 326.689 2.35 326.589 2.35C325.489 2.35 324.673 2.45 324.139 2.65C323.639 2.85 323.289 3.2 323.089 3.7C322.923 4.16667 322.839 4.9 322.839 5.9V28.95ZM377.183 33.6C374.083 33.6 371.316 32.8833 368.883 31.45C366.483 29.9833 364.616 28.0167 363.283 25.55C361.983 23.05 361.333 20.3333 361.333 17.4C361.333 13.9667 362.199 11.0333 363.933 8.6C365.666 6.13333 367.883 4.28333 370.583 3.05C373.316 1.81666 376.099 1.2 378.933 1.2C382.099 1.2 384.883 1.95 387.283 3.45C389.683 4.91666 391.516 6.86666 392.783 9.3C394.083 11.7333 394.733 14.3167 394.733 17.05C394.733 20.0833 393.933 22.8667 392.333 25.4C390.733 27.9333 388.583 29.9333 385.883 31.4C383.216 32.8667 380.316 33.6 377.183 33.6ZM378.883 32.4C380.883 32.4 382.666 31.8667 384.233 30.8C385.833 29.7 387.083 28.1 387.983 26C388.916 23.9 389.383 21.4 389.383 18.5C389.383 15.4333 388.866 12.6833 387.833 10.25C386.833 7.81667 385.383 5.91667 383.483 4.55C381.616 3.18333 379.416 2.5 376.883 2.5C373.649 2.5 371.133 3.66667 369.333 6C367.566 8.3 366.683 11.5 366.683 15.6C366.683 18.7667 367.199 21.6333 368.233 24.2C369.299 26.7667 370.749 28.7833 372.583 30.25C374.449 31.6833 376.549 32.4 378.883 32.4ZM463.014 1.75C463.081 1.75 463.114 1.85 463.114 2.05C463.114 2.25 463.081 2.35 463.014 2.35C461.681 2.35 460.647 2.83333 459.914 3.8C459.181 4.73333 458.814 6.08333 458.814 7.85V33.7C458.814 33.8 458.731 33.8667 458.564 33.9C458.397 33.9333 458.281 33.9167 458.214 33.85L434.764 6.6V26.95C434.764 28.7167 435.114 30.0667 435.814 31C436.514 31.9333 437.531 32.4 438.864 32.4C438.931 32.4 438.964 32.5 438.964 32.7C438.964 32.9 438.931 33 438.864 33C437.964 33 437.281 32.9833 436.814 32.95L434.164 32.9L431.214 32.95C430.681 32.9833 429.914 33 428.914 33C428.814 33 428.764 32.9 428.764 32.7C428.764 32.5 428.814 32.4 428.914 32.4C430.347 32.4 431.447 31.9333 432.214 31C433.014 30.0667 433.414 28.7167 433.414 26.95V5.05C432.481 4.05 431.631 3.35 430.864 2.95C430.131 2.55 429.364 2.35 428.564 2.35C428.497 2.35 428.464 2.25 428.464 2.05C428.464 1.85 428.497 1.75 428.564 1.75L430.564 1.8C430.997 1.83333 431.614 1.85 432.414 1.85L435.614 1.8C436.014 1.76667 436.497 1.75 437.064 1.75C437.331 1.75 437.531 1.81667 437.664 1.95C437.797 2.08333 437.997 2.35 438.264 2.75L439.464 4.35L457.464 25.55V7.85C457.464 6.08333 457.114 4.73333 456.414 3.8C455.714 2.83333 454.714 2.35 453.414 2.35C453.347 2.35 453.314 2.25 453.314 2.05C453.314 1.85 453.347 1.75 453.414 1.75L455.464 1.8C456.531 1.86667 457.414 1.9 458.114 1.9C458.781 1.9 459.681 1.86667 460.814 1.8L463.014 1.75Z" fill="white"/>
</svg>

<svg xmlns="http://www.w3.org/2000/svg" width="464" height="34" fill="none" xmlns:v="https://vecta.io/nano"><path d="M33.95 32.4c.1 0 .15.1.15.3s-.05.3-.15.3H25.9c-.767 0-2.2-1.333-4.3-4-2.067-2.667-4.583-6.4-7.55-11.2-.733.067-1.3.1-1.7.1-.733 0-1.6-.033-2.6-.1v11.15c0 1.033.083 1.783.25 2.25.2.467.55.783 1.05.95.533.167 1.367.25 2.5.25.067 0 .1.1.1.3s-.033.3-.1.3c-1.1 0-1.95-.017-2.55-.05l-3.7-.05-3.6.05c-.633.033-1.5.05-2.6.05-.1 0-.15-.1-.15-.3s.05-.3.15-.3c1.133 0 1.95-.083 2.45-.25.533-.167.9-.483 1.1-.95.2-.5.3-1.25.3-2.25V5.8c0-1-.1-1.733-.3-2.2-.167-.467-.517-.783-1.05-.95-.533-.2-1.35-.3-2.45-.3-.067 0-.1-.1-.1-.3s.033-.3.1-.3l2.6.05c1.467.067 2.65.1 3.55.1 1.1 0 2.3-.05 3.6-.15l1.55-.1c.633-.033 1.333-.05 2.1-.05 2.9 0 5.133.567 6.7 1.7 1.6 1.133 2.4 2.717 2.4 4.75 0 1.833-.517 3.483-1.55 4.95-1 1.467-2.35 2.633-4.05 3.5 2.733 4.033 5.017 7.183 6.85 9.45s3.45 3.917 4.85 4.95c1.433 1 2.833 1.5 4.2 1.5zM9.75 16.45c.8.133 1.767.2 2.9.2 2.167 0 3.717-.533 4.65-1.6.933-1.1 1.4-2.85 1.4-5.25 0-2.7-.467-4.583-1.4-5.65-.9-1.067-2.217-1.6-3.95-1.6-1.3 0-2.233.25-2.8.75-.533.467-.8 1.333-.8 2.6v10.55zm78.222 8.75c0-.067.067-.1.2-.1a.34.34 0 0 1 .25.1c.1.033.15.067.15.1-.333 2.533-.5 4.85-.5 6.95 0 .267-.05.467-.15.6-.1.1-.3.15-.6.15h-21.7c-.1 0-.15-.1-.15-.3s.05-.3.15-.3c1.133 0 1.95-.083 2.45-.25.533-.167.883-.483 1.05-.95.2-.5.3-1.25.3-2.25V5.8c0-1-.1-1.733-.3-2.2-.167-.467-.517-.783-1.05-.95-.533-.2-1.35-.3-2.45-.3-.1 0-.15-.1-.15-.3s.05-.3.15-.3h20.8c.333 0 .5.15.5.45l.1 6.5c0 .067-.1.117-.3.15-.167.033-.267 0-.3-.1-.8-3.8-3.117-5.7-6.95-5.7h-2c-1.2 0-2.05.217-2.55.65s-.75 1.167-.75 2.2v10.2h4.8c3.667 0 5.5-1.233 5.5-3.7 0-.1.083-.15.25-.15.2 0 .3.05.3.15l-.05 4.35.05 2.35c.067 1.067.1 1.933.1 2.6 0 .067-.1.1-.3.1s-.3-.033-.3-.1c0-2.867-1.867-4.3-5.6-4.3h-4.75v11.35c0 1.1.2 1.867.6 2.3.433.433 1.183.65 2.25.65h2.45c4.467 0 7.3-2.167 8.5-6.5zm68.443 7.2c.167 0 .25.1.25.3s-.083.3-.25.3c-.633 0-1.65-.033-3.05-.1s-2.416-.1-3.05-.1a51.14 51.14 0 0 0-2.95.1c-1.133.067-2.016.1-2.65.1-.133 0-.2-.1-.2-.3s.067-.3.2-.3c.967 0 1.667-.1 2.1-.3.467-.233.7-.6.7-1.1s-.283-1.35-.85-2.55l-3.8-7.7h-12.1l-2.4 5.4c-.433 1-.65 1.9-.65 2.7 0 1.167.417 2.05 1.25 2.65s2 .9 3.5.9c.167 0 .25.1.25.3s-.083.3-.25.3c-.6 0-1.466-.033-2.6-.1a63.82 63.82 0 0 0-3.3-.1c-.9 0-1.95.033-3.15.1-1.066.067-1.95.1-2.65.1-.166 0-.25-.1-.25-.3s.084-.3.25-.3c.934 0 1.717-.183 2.35-.55s1.25-1.017 1.85-1.95c.6-.967 1.317-2.383 2.15-4.25l10.75-24.2c.067-.1.217-.15.45-.15s.367.05.4.15l12.25 24.7c1.167 2.4 2.134 4.05 2.9 4.95.8.867 1.65 1.3 2.55 1.3zm-25.1-12.9h10.95l-5.75-11.65-5.2 11.65zm75.611-18.3c3.7 0 6.684.517 8.95 1.55.267.133.434.267.5.4.067.1.134.35.2.75l.6 6.6c0 .1-.083.167-.25.2s-.283-.017-.35-.15c-.866-2.733-2.166-4.817-3.9-6.25-1.7-1.433-3.816-2.15-6.35-2.15-2.433 0-4.616.617-6.55 1.85-1.9 1.2-3.383 2.95-4.45 5.25-1.066 2.267-1.6 4.917-1.6 7.95 0 3 .567 5.683 1.7 8.05 1.134 2.333 2.684 4.15 4.65 5.45s4.184 1.95 6.65 1.95c2.434 0 4.45-.633 6.05-1.9 1.634-1.3 3.067-3.35 4.3-6.15.034-.1.134-.133.3-.1s.25.083.25.15l-.65 6c-.033.4-.1.65-.2.75-.066.1-.233.217-.5.35-3 1.233-6.183 1.85-9.55 1.85-3.566 0-6.75-.667-9.55-2-2.8-1.367-4.983-3.267-6.55-5.7-1.566-2.467-2.35-5.283-2.35-8.45 0-3.133.817-5.933 2.45-8.4s3.867-4.383 6.7-5.75c2.834-1.4 6-2.1 9.5-2.1zm53.581 1.6c-2.033 0-3.717.633-5.05 1.9-1.3 1.233-2.3 3.117-3 5.65 0 .067-.1.1-.3.1-.167 0-.25-.05-.25-.15l.45-5c.167-2.067.25-3.617.25-4.65 0-.167.083-.25.25-.25.2 0 .3.083.3.25 0 .733.933 1.1 2.8 1.1 2.867.1 6.217.15 10.05.15a206.8 206.8 0 0 0 6.25-.1l3.4-.05c1.267 0 2.183-.083 2.75-.25.6-.167.983-.5 1.15-1 .033-.133.133-.2.3-.2s.25.067.25.2c-.1 1.033-.2 2.6-.3 4.7s-.15 3.8-.15 5.1c0 .1-.1.15-.3.15-.167 0-.267-.05-.3-.15-.333-2.567-1.117-4.45-2.35-5.65-1.233-1.233-2.9-1.85-5-1.85-.933 0-1.633.083-2.1.25-.433.167-.733.467-.9.9-.133.4-.2 1.05-.2 1.95v23.05c0 1.033.1 1.783.3 2.25s.6.783 1.2.95 1.55.25 2.85.25c.1 0 .15.1.15.3s-.05.3-.15.3c-1.167 0-2.083-.017-2.75-.05l-4.1-.05-3.9.05c-.7.033-1.667.05-2.9.05-.067 0-.1-.1-.1-.3s.033-.3.1-.3c1.3 0 2.25-.083 2.85-.25.633-.167 1.05-.483 1.25-.95.233-.5.35-1.25.35-2.25V5.8c0-.867-.083-1.5-.25-1.9s-.467-.683-.9-.85-1.1-.25-2-.25zm62.332 26.15c0 1.033.084 1.783.25 2.25s.5.783 1 .95c.534.167 1.367.25 2.5.25.1 0 .15.1.15.3s-.05.3-.15.3c-1.066 0-1.916-.017-2.55-.05l-3.7-.05-3.6.05c-.633.033-1.5.05-2.6.05-.1 0-.15-.1-.15-.3s.05-.3.15-.3c1.134 0 1.95-.083 2.45-.25.534-.167.9-.483 1.1-.95.2-.5.3-1.25.3-2.25V5.8c0-1-.1-1.733-.3-2.2s-.566-.783-1.1-.95c-.5-.2-1.316-.3-2.45-.3-.1 0-.15-.1-.15-.3s.05-.3.15-.3l2.6.05c1.467.067 2.667.1 3.6.1 1.034 0 2.284-.033 3.75-.1l2.5-.05c.1 0 .15.1.15.3s-.05.3-.15.3c-1.1 0-1.916.1-2.45.3a1.81 1.81 0 0 0-1.05 1.05c-.166.467-.25 1.2-.25 2.2v23.05zm54.344 4.65c-3.1 0-5.867-.717-8.3-2.15-2.4-1.467-4.267-3.433-5.6-5.9-1.3-2.5-1.95-5.217-1.95-8.15 0-3.433.866-6.367 2.6-8.8 1.733-2.467 3.95-4.317 6.65-5.55 2.733-1.233 5.516-1.85 8.35-1.85 3.166 0 5.95.75 8.35 2.25 2.4 1.467 4.233 3.417 5.5 5.85 1.3 2.433 1.95 5.017 1.95 7.75 0 3.033-.8 5.817-2.4 8.35s-3.75 4.533-6.45 6c-2.667 1.467-5.567 2.2-8.7 2.2zm1.7-1.2c2 0 3.783-.533 5.35-1.6 1.6-1.1 2.85-2.7 3.75-4.8.933-2.1 1.4-4.6 1.4-7.5 0-3.067-.517-5.817-1.55-8.25-1-2.433-2.45-4.333-4.35-5.7-1.867-1.367-4.067-2.05-6.6-2.05-3.234 0-5.75 1.167-7.55 3.5-1.767 2.3-2.65 5.5-2.65 9.6 0 3.167.516 6.033 1.55 8.6 1.066 2.567 2.516 4.583 4.35 6.05 1.866 1.433 3.966 2.15 6.3 2.15zm84.131-30.65c.067 0 .1.1.1.3s-.033.3-.1.3c-1.333 0-2.367.483-3.1 1.45-.733.933-1.1 2.283-1.1 4.05V33.7c0 .1-.083.167-.25.2s-.283.017-.35-.05L434.764 6.6v20.35c0 1.767.35 3.117 1.05 4.05s1.717 1.4 3.05 1.4c.067 0 .1.1.1.3s-.033.3-.1.3c-.9 0-1.583-.017-2.05-.05l-2.65-.05-2.95.05a39.68 39.68 0 0 1-2.3.05c-.1 0-.15-.1-.15-.3s.05-.3.15-.3c1.433 0 2.533-.467 3.3-1.4.8-.933 1.2-2.283 1.2-4.05V5.05c-.933-1-1.783-1.7-2.55-2.1-.733-.4-1.5-.6-2.3-.6-.067 0-.1-.1-.1-.3s.033-.3.1-.3l2 .05c.433.033 1.05.05 1.85.05l3.2-.05c.4-.033.883-.05 1.45-.05.267 0 .467.067.6.2s.333.4.6.8l1.2 1.6 18 21.2V7.85c0-1.767-.35-3.117-1.05-4.05-.7-.967-1.7-1.45-3-1.45-.067 0-.1-.1-.1-.3s.033-.3.1-.3l2.05.05c1.067.067 1.95.1 2.65.1.667 0 1.567-.033 2.7-.1l2.2-.05z" fill="#fff"/></svg>
